src/assets/shopping-cart.svg

<svg width="16" height="16" viewBox="0 0 16 16" fill="none" xmlns="http://www.w3.org/2000/svg">
<g clip-path="url(#clip0_1_301)">
<path d="M13.4427 8.66667H3.61267L2.98533 3.33333H8V2H2.828L2.8 1.76533C2.74255 1.27907 2.50871 0.830769 2.14279 0.505403C1.77688 0.180036 1.30432 0.000208558 0.814667 0L0 0V1.33333H0.814667C0.977956 1.33335 1.13556 1.3933 1.25758 1.50181C1.3796 1.61032 1.45756 1.75983 1.47667 1.922L2.53333 10.9007C2.59063 11.3871 2.82441 11.8355 3.19034 12.161C3.55627 12.4865 4.02891 12.6664 4.51867 12.6667H13.3333V11.3333H4.51867C4.35528 11.3333 4.19759 11.2733 4.07555 11.1646C3.95351 11.056 3.87562 10.9063 3.85667 10.744L3.76933 10H14.5573L15.1573 6.66667H13.8033L13.4427 8.66667Z" fill="#7F858D"/>
<path d="M4.66677 16.0004C5.40314 16.0004 6.0001 15.4035 6.0001 14.6671C6.0001 13.9307 5.40314 13.3338 4.66677 13.3338C3.93039 13.3338 3.33344 13.9307 3.33344 14.6671C3.33344 15.4035 3.93039 16.0004 4.66677 16.0004Z" fill="#7F858D"/>
<path d="M11.3333 16.0004C12.0697 16.0004 12.6667 15.4035 12.6667 14.6671C12.6667 13.9307 12.0697 13.3338 11.3333 13.3338C10.597 13.3338 10 13.9307 10 14.6671C10 15.4035 10.597 16.0004 11.3333 16.0004Z" fill="#7F858D"/>
<path d="M11.3852 5.69513H11.4072C11.5725 5.69568 11.7364 5.66337 11.8892 5.60008C12.0419 5.53679 12.1806 5.44379 12.2972 5.32646L15.8045 1.81913L14.8618 0.876465L11.4078 4.3338L9.91184 2.7738L8.95117 3.6978L10.4885 5.2978C10.6034 5.42115 10.7421 5.51995 10.8962 5.58824C11.0503 5.65653 11.2166 5.69289 11.3852 5.69513Z" fill="#7F858D"/>
</g>
<defs>
<clipPath id="clip0_1_301">
<rect width="16" height="16" fill="white"/>
</clipPath>
</defs>
</svg>

<svg width="16" height="16" fill="none" xmlns="http://www.w3.org/2000/svg">
  <g clip-path="url(#prefix__clip0_1_301)" fill="currentColor">
    <path
      d="M13.443 8.667h-9.83l-.628-5.334H8V2H2.828L2.8 1.765A2 2 0 00.815 0H0v1.333h.815a.667.667 0 01.662.589l1.056 8.979a2 2 0 001.986 1.766h8.814v-1.334H4.52a.666.666 0 01-.662-.589L3.769 10h10.788l.6-3.333h-1.354l-.36 2zM4.667 16a1.333 1.333 0 100-2.666 1.333 1.333 0 000 2.666zM11.333 16a1.333 1.333 0 100-2.666 1.333 1.333 0 000 2.666z" />
    <path
      d="M11.385 5.695h.022a1.249 1.249 0 00.89-.369l3.508-3.507-.943-.943-3.454 3.458-1.496-1.56-.96.924 1.537 1.6a1.248 1.248 0 00.896.397z" />
  </g>
</svg>
